public/images/tokens/rdpx-weth.svg

<svg width="41" height="40" viewBox="0 0 41 40" fill="none" xmlns="http://www.w3.org/2000/svg">
<mask id="mask0_838_43474" style="mask-type:alpha" maskUnits="userSpaceOnUse" x="11" y="10" width="30" height="30">
<path fill-rule="evenodd" clip-rule="evenodd" d="M14.3333 30C23.1699 30 30.3333 22.8366 30.3333 14C30.3333 12.8831 30.2189 11.7929 30.0011 10.7405C35.9999 12.7029 40.3333 18.3454 40.3333 25C40.3333 33.2843 33.6176 40 25.3333 40C18.6787 40 13.0363 35.6666 11.0738 29.6677C12.1262 29.8855 13.2164 30 14.3333 30Z" fill="#C4C4C4"/>
</mask>
<g mask="url(#mask0_838_43474)">
<circle cx="26.3333" cy="26" r="14" fill="black"/>
<circle cx="26.3333" cy="26" r="13.5" stroke="white" stroke-opacity="0.2"/>
<path fill-rule="evenodd" clip-rule="evenodd" d="M26.3223 31.4867L32.7948 27.4286L26.3223 36.7692V31.4867ZM27.2848 32.0149V33.7028L29.3575 30.7128L27.2848 32.0149Z" fill="#5A9DED"/>
<path fill-rule="evenodd" clip-rule="evenodd" d="M26.9847 23.0559L31.7628 25.7563L31.2915 26.5884L26.5134 23.888L26.9847 23.0559Z" fill="#D895D3"/>
<path fill-rule="evenodd" clip-rule="evenodd" d="M26.3223 15.2308L32.7729 26.3213L26.3223 30.3853V15.2308ZM27.2736 18.78V28.6621L31.4865 26.0078L27.2736 18.78Z" fill="#FF9C92"/>
<path fill-rule="evenodd" clip-rule="evenodd" d="M26.3443 31.4867L19.8718 27.4286L26.3443 36.7692V31.4867ZM25.3818 32.0149V33.7028L23.3092 30.7128L25.3818 32.0149Z" fill="#53D3E0"/>
<path fill-rule="evenodd" clip-rule="evenodd" d="M25.4806 23.146L20.7025 25.8464L21.1738 26.6785L25.9519 23.9782L25.4806 23.146Z" fill="#A6E275"/>
<path fill-rule="evenodd" clip-rule="evenodd" d="M26.3223 15.2308L19.8718 26.3213L26.3223 30.3853V15.2308ZM25.3711 18.78V28.6621L21.1582 26.0078L25.3711 18.78Z" fill="#FFE94D"/>
</g>
<mask id="path-11-inside-1_838_43474" fill="white">
<path fill-rule="evenodd" clip-rule="evenodd" d="M14.3333 28C22.0653 28 28.3333 21.732 28.3333 14C28.3333 6.26801 22.0653 0 14.3333 0C12.4336 0 10.6222 0.378389 8.97046 1.06391C8.2038 0.449161 7.23054 0.0814313 6.1714 0.0814313C3.69841 0.0814313 1.69366 2.08618 1.69366 4.55916C1.69366 5.38618 1.91787 6.16083 2.30881 6.82565C1.05428 8.92377 0.333313 11.3777 0.333313 14C0.333313 21.732 6.60133 28 14.3333 28Z"/>
</mask>
<path fill-rule="evenodd" clip-rule="evenodd" d="M14.3333 28C22.0653 28 28.3333 21.732 28.3333 14C28.3333 6.26801 22.0653 0 14.3333 0C12.4336 0 10.6222 0.378389 8.97046 1.06391C8.2038 0.449161 7.23054 0.0814313 6.1714 0.0814313C3.69841 0.0814313 1.69366 2.08618 1.69366 4.55916C1.69366 5.38618 1.91787 6.16083 2.30881 6.82565C1.05428 8.92377 0.333313 11.3777 0.333313 14C0.333313 21.732 6.60133 28 14.3333 28Z" fill="#002EFF"/>
<path d="M8.97046 1.06391L2.08911 9.6457L7.1709 13.7206L13.1871 11.2236L8.97046 1.06391ZM2.30881 6.82565L11.7498 12.4707L15.0972 6.87241L11.7909 1.24976L2.30881 6.82565ZM17.3333 14C17.3333 15.6569 15.9902 17 14.3333 17V39C28.1404 39 39.3333 27.8071 39.3333 14H17.3333ZM14.3333 11C15.9902 11 17.3333 12.3431 17.3333 14H39.3333C39.3333 0.192881 28.1404 -11 14.3333 -11V11ZM13.1871 11.2236C13.5258 11.0831 13.906 11 14.3333 11V-11C10.9612 -11 7.71864 -10.3263 4.75385 -9.09582L13.1871 11.2236ZM6.1714 11.0814C4.63934 11.0814 3.20375 10.5395 2.08911 9.6457L15.8518 -7.51787C13.2039 -9.64115 9.82175 -10.9186 6.1714 -10.9186V11.0814ZM12.6937 4.55916C12.6937 8.16131 9.77355 11.0814 6.1714 11.0814V-10.9186C-2.37672 -10.9186 -9.30634 -3.98895 -9.30634 4.55916H12.6937ZM11.7909 1.24976C12.3666 2.22887 12.6937 3.37257 12.6937 4.55916H-9.30634C-9.30634 7.39979 -8.53089 10.0928 -7.17325 12.4015L11.7909 1.24976ZM11.3333 14C11.3333 13.4203 11.4871 12.9101 11.7498 12.4707L-7.13222 1.18057C-9.37857 4.93744 -10.6667 9.33507 -10.6667 14H11.3333ZM14.3333 17C12.6765 17 11.3333 15.6569 11.3333 14H-10.6667C-10.6667 27.8071 0.526194 39 14.3333 39V17Z" fill="#002EFF" mask="url(#path-11-inside-1_838_43474)"/>
<path fill-rule="evenodd" clip-rule="evenodd" d="M8.14692 10.8187L11.5912 5.44733L6.45663 10.5819C6.02941 11.0092 6.23039 11.7391 6.81611 11.8873L9.53766 12.5763C9.29464 12.9583 9.01946 13.44 8.80558 13.9505C8.60964 14.4183 8.44626 14.9537 8.43007 15.4841C8.4135 16.0271 8.55279 16.6091 9.01204 17.0683C9.70207 17.7584 10.2032 17.9991 10.6034 18.1914L10.691 18.2336C10.8772 18.324 11.0147 18.3982 11.1607 18.5148C11.308 18.6326 11.4869 18.8126 11.7167 19.1285C11.7576 19.1848 11.8009 19.2449 11.8466 19.3083C12.3476 20.0035 13.1339 21.0947 14.1486 21.819C14.7148 22.2231 15.3868 22.5406 16.1552 22.6028C16.9335 22.6657 17.7463 22.4613 18.5736 21.9285C19.366 21.4181 19.8882 20.8496 20.1338 20.1875C20.3812 19.5207 20.3079 18.8671 20.128 18.2744C19.9632 17.7315 19.6882 17.1779 19.4315 16.6612L19.3831 16.5637C19.1023 15.9976 18.8375 15.4505 18.6612 14.8776C18.3171 13.7593 18.5505 13.2748 18.6972 13.0829C18.7833 12.9704 18.8825 12.901 18.9596 12.86C18.9978 12.8397 19.0284 12.8275 19.0452 12.8215L19.0543 12.8184L19.0704 12.8146L19.0981 12.8056L19.0982 12.8055L19.22 12.7656L19.541 12.66C19.8068 12.5724 20.1619 12.455 20.5188 12.3361C20.8752 12.2173 21.2352 12.0962 21.51 12.0016C21.6468 11.9544 21.7659 11.9126 21.8539 11.8804C21.8971 11.8647 21.9384 11.8491 21.9725 11.8353C21.9886 11.8288 22.011 11.8195 22.0342 11.8086C22.0452 11.8034 22.0649 11.794 22.0877 11.7811L22.0887 11.7805C22.0992 11.7747 22.1698 11.7357 22.239 11.6666C22.5156 11.3899 22.4271 11.0508 22.418 11.016L22.4175 11.0143C22.3964 10.9313 22.3641 10.8715 22.3539 10.8527C22.3283 10.8058 22.3017 10.7701 22.2925 10.7578C22.2685 10.7256 22.2418 10.6942 22.2216 10.6709C22.1775 10.6202 22.1169 10.5542 22.0468 10.4793C21.9627 10.3896 20.3301 8.73572 18.9585 7.34627C18.0088 6.38419 17.1842 5.54887 17.0854 5.44733C17.0971 5.45934 17.9754 6.84119 18.8448 8.2091C19.6969 9.54966 20.5404 10.8768 20.5514 10.8882C20.402 10.9385 20.245 10.991 20.0879 11.0434C19.7331 11.1617 19.3795 11.2785 19.1146 11.3658L18.7948 11.471L18.6919 11.5048L18.6774 11.5089C18.6534 11.5159 18.6231 11.5254 18.5876 11.5381C18.517 11.5632 18.4244 11.6013 18.3197 11.657C18.1109 11.7681 17.8451 11.9542 17.6148 12.2552C17.1289 12.8907 16.9243 13.8661 17.3589 15.2783C17.5719 15.9707 17.885 16.6098 18.1624 17.1691L18.1895 17.2239C18.4655 17.7803 18.6934 18.2395 18.8241 18.6702C18.9544 19.0994 18.9633 19.4253 18.8563 19.7135C18.7476 20.0064 18.4791 20.3686 17.8358 20.7829C17.2275 21.1747 16.7087 21.2805 16.265 21.2446C15.8114 21.2079 15.371 21.0174 14.9402 20.7099C14.1187 20.1235 13.4597 19.2127 12.9402 18.4948C12.8988 18.4376 12.8583 18.3816 12.8186 18.3271C12.5352 17.9373 12.275 17.6611 12.0114 17.4504C11.7463 17.2386 11.5008 17.1121 11.2861 17.0078C11.2551 16.9928 11.2244 16.978 11.1937 16.9633C10.8412 16.7942 10.5024 16.6317 9.97554 16.1048C9.85411 15.9834 9.7834 15.8088 9.79204 15.5256C9.80107 15.2297 9.89812 14.8691 10.0624 14.477C10.3897 13.6956 10.9091 12.9619 11.1166 12.6846C11.4553 12.2321 11.2142 11.5952 10.6827 11.4606L8.14692 10.8187ZM13.891 16.3893C13.891 16.3893 12.8409 16.3893 12.1408 15.7452C11.4408 15.101 12.1408 13.8127 12.1408 13.8127C12.1408 13.8127 12.345 13.9416 13.118 14.8434C13.891 15.7452 13.891 16.3893 13.891 16.3893Z" fill="white"/>
<ellipse cx="6.17136" cy="4.55925" rx="3.45749" ry="3.45749" fill="url(#paint0_radial_838_43474)"/>
<path d="M4.88055 6.20295H5.65866V5.00088H6.06268L6.73604 6.20295H7.64881L6.83579 4.90611C7.2847 4.73653 7.54407 4.35745 7.54407 3.87363C7.54407 3.19528 7.06025 2.71146 6.27217 2.71146H4.88055V6.20295ZM6.20732 3.42971C6.52655 3.42971 6.73105 3.60927 6.73105 3.87363C6.73105 4.13798 6.52655 4.31755 6.20732 4.31755H5.65866V3.42971H6.20732Z" fill="white"/>
<defs>
<radialGradient id="paint0_radial_838_43474" cx="0" cy="0" r="1" gradientUnits="userSpaceOnUse" gradientTransform="translate(4.13087 1.8386) rotate(51.3402) scale(6.89567)">
<stop stop-color="#22E1FF"/>
<stop offset="1" stop-color="#22E1FF" stop-opacity="0"/>
</radialGradient>
</defs>
</svg>

<svg fill="none" xmlns="http://www.w3.org/2000/svg" viewBox="0 0 41 40"><mask id="a" style="mask-type:alpha" maskUnits="userSpaceOnUse" x="11" y="10" width="30" height="30"><path fill-rule="evenodd" clip-rule="evenodd" d="M14.333 30c8.837 0 16-7.163 16-16a16.07 16.07 0 0 0-.332-3.26C36 12.704 40.333 18.346 40.333 25c0 8.284-6.715 15-15 15-6.654 0-12.297-4.333-14.26-10.332a16.07 16.07 0 0 0 3.26.332Z" fill="#C4C4C4"/></mask><g mask="url(#a)"><circle cx="26.333" cy="26" r="14" fill="#000"/><circle cx="26.333" cy="26" r="13.5" stroke="#fff" stroke-opacity=".2"/><path fill-rule="evenodd" clip-rule="evenodd" d="m26.322 31.487 6.473-4.058-6.473 9.34v-5.282Zm.963.528v1.688l2.073-2.99-2.073 1.302Z" fill="#5A9DED"/><path fill-rule="evenodd" clip-rule="evenodd" d="m26.985 23.056 4.778 2.7-.472.832-4.778-2.7.472-.832Z" fill="#D895D3"/><path fill-rule="evenodd" clip-rule="evenodd" d="m26.322 15.23 6.45 11.091-6.45 4.064V15.231Zm.952 3.55v9.882l4.212-2.654-4.212-7.228Z" fill="#FF9C92"/><path fill-rule="evenodd" clip-rule="evenodd" d="m26.344 31.487-6.472-4.058 6.472 9.34v-5.282Zm-.962.528v1.688l-2.073-2.99 2.073 1.302Z" fill="#53D3E0"/><path fill-rule="evenodd" clip-rule="evenodd" d="m25.48 23.146-4.777 2.7.47.832 4.779-2.7-.471-.832Z" fill="#A6E275"/><path fill-rule="evenodd" clip-rule="evenodd" d="m26.322 15.23-6.45 11.091 6.45 4.064V15.231Zm-.95 3.55v9.882l-4.214-2.654 4.213-7.228Z" fill="#FFE94D"/></g><mask id="b" fill="#fff"><path fill-rule="evenodd" clip-rule="evenodd" d="M14.333 28c7.732 0 14-6.268 14-14s-6.268-14-14-14c-1.9 0-3.71.378-5.363 1.064a4.478 4.478 0 0 0-6.662 5.762A13.935 13.935 0 0 0 .334 14c0 7.732 6.268 14 14 14Z"/></mask><path fill-rule="evenodd" clip-rule="evenodd" d="M14.333 28c7.732 0 14-6.268 14-14s-6.268-14-14-14c-1.9 0-3.71.378-5.363 1.064a4.478 4.478 0 0 0-6.662 5.762A13.935 13.935 0 0 0 .334 14c0 7.732 6.268 14 14 14Z" fill="#002EFF"/><path d="M8.97 1.064 2.09 9.646l5.08 4.075 6.017-2.497L8.97 1.064ZM2.31 6.826l9.44 5.645 3.348-5.599-3.306-5.622-9.482 5.576ZM17.333 14a3 3 0 0 1-3 3v22c13.807 0 25-11.193 25-25h-22Zm-3-3a3 3 0 0 1 3 3h22c0-13.807-11.193-25-25-25v22Zm-1.146.224A2.96 2.96 0 0 1 14.333 11v-22c-3.372 0-6.614.674-9.58 1.904l8.434 20.32Zm-7.016-.143A6.541 6.541 0 0 1 2.09 9.646L15.852-7.518a15.459 15.459 0 0 0-9.68-3.4v22Zm6.523-6.522a6.522 6.522 0 0 1-6.523 6.522v-22c-8.548 0-15.477 6.93-15.477 15.478h22Zm-.903-3.31c.576.98.903 2.124.903 3.31h-22c0 2.84.775 5.534 2.133 7.843L11.79 1.25ZM11.333 14c0-.58.154-1.09.417-1.53L-7.132 1.18A24.935 24.935 0 0 0-10.667 14h22Zm3 3a3 3 0 0 1-3-3h-22c0 13.807 11.193 25 25 25V17Z" fill="#002EFF" mask="url(#b)"/><path fill-rule="evenodd" clip-rule="evenodd" d="m8.147 10.819 3.444-5.372-5.134 5.135a.779.779 0 0 0 .36 1.305l2.72.69a9.377 9.377 0 0 0-.731 1.373c-.196.468-.36 1.004-.376 1.534-.016.543.123 1.125.582 1.584.69.69 1.191.931 1.591 1.123l.088.043c.186.09.324.164.47.28.147.119.326.299.556.614l.13.18c.5.695 1.287 1.787 2.302 2.511.566.404 1.238.722 2.006.784.778.063 1.591-.142 2.419-.675.792-.51 1.314-1.078 1.56-1.74.247-.667.174-1.32-.006-1.914-.165-.543-.44-1.096-.697-1.613l-.048-.097c-.28-.566-.546-1.114-.722-1.686-.344-1.119-.11-1.603.036-1.795a.81.81 0 0 1 .348-.261l.01-.004.015-.003.028-.01.122-.04.321-.105.978-.324c.356-.119.716-.24.991-.334a21.14 21.14 0 0 0 .462-.167 1.226 1.226 0 0 0 .116-.054.683.683 0 0 0 .33-.764v-.003a.698.698 0 0 0-.125-.256 1.558 1.558 0 0 0-.071-.087 7.658 7.658 0 0 0-.175-.192c-.084-.09-1.717-1.743-3.088-3.133-.95-.962-1.775-1.797-1.874-1.899.012.012.89 1.394 1.76 2.762.852 1.34 1.695 2.668 1.706 2.68a175.568 175.568 0 0 1-1.436.477l-.32.105-.103.034-.015.004a2.003 2.003 0 0 0-.358.148 2.174 2.174 0 0 0-.704.598c-.486.636-.69 1.611-.256 3.023.213.693.526 1.332.803 1.891l.027.055c.276.556.504 1.015.635 1.446.13.43.14.755.032 1.043-.108.293-.377.656-1.02 1.07-.608.392-1.127.497-1.571.462-.454-.037-.894-.228-1.325-.535-.821-.587-1.48-1.497-2-2.215l-.121-.168a4.418 4.418 0 0 0-.808-.877 3.658 3.658 0 0 0-.725-.442l-.092-.045c-.353-.169-.692-.331-1.218-.858-.122-.122-.193-.296-.184-.58.01-.295.106-.656.27-1.048.328-.781.847-1.515 1.055-1.792a.78.78 0 0 0-.434-1.224l-2.536-.642Zm5.744 5.57s-1.05 0-1.75-.644 0-1.932 0-1.932.204.129.977 1.03c.773.902.773 1.546.773 1.546Z" fill="#fff"/><circle cx="6.171" cy="4.559" fill="url(#c)" r="3.457"/><path d="M4.88 6.203h.779V5.001h.404l.673 1.202h.913l-.813-1.297c.449-.17.708-.549.708-1.032 0-.679-.484-1.163-1.272-1.163H4.881v3.492ZM6.208 3.43c.32 0 .524.18.524.444s-.204.444-.524.444H5.66V3.43h.548Z" fill="#fff"/><defs><radialGradient id="c" cx="0" cy="0" r="1" gradientUnits="userSpaceOnUse" gradientTransform="rotate(51.34 .153 5.217) scale(6.89567)"><stop stop-color="#22E1FF"/><stop offset="1" stop-color="#22E1FF" stop-opacity="0"/></radialGradient></defs></svg>
